packages/icons/svg/Fill/file-remove.svg

<svg fill="none" height="24" viewBox="0 0 24 24" width="24" xmlns="http://www.w3.org/2000/svg"><path clip-rule="evenodd" d="m14.7139 8.0001c-.394 0-.714-.381-.714-.85v-3.172l3.742 4.022zm-.714 7h-4.00001c-.553 0-1-.448-1-1s.447-1 1-1h4.00001c.553 0 1 .448 1 1s-.447 1-1 1zm5.74-7.6721-4.444-5c-.189-.209-.458-.328-.74-.328h-8.00002c-1.409 0-2.556 1.122-2.556 2.5v15c0 1.378 1.147 2.5 2.556 2.5h10.88802c1.41 0 2.556-1.122 2.556-2.5v-11.5c0-.249-.093-.488-.26-.672z" fill="#6b7280" fill-rule="evenodd"/></svg>

<svg width="24" height="24" viewBox="0 0 24 24" fill="none" xmlns="http://www.w3.org/2000/svg">
<g id="Icon/Fill/file-remove">
<path id="Mask" fill-rule="evenodd" clip-rule="evenodd" d="M14.714 8C14.32 8 14 7.619 14 7.15V3.978L17.742 8H14.714ZM14 15H10C9.447 15 9 14.552 9 14C9 13.448 9.447 13 10 13H14C14.553 13 15 13.448 15 14C15 14.552 14.553 15 14 15ZM19.74 7.328L15.296 2.328C15.107 2.119 14.838 2 14.556 2H6.556C5.147 2 4 3.122 4 4.5V19.5C4 20.878 5.147 22 6.556 22H17.444C18.854 22 20 20.878 20 19.5V8C20 7.751 19.907 7.512 19.74 7.328Z" fill="#000000"/>
</g>
</svg>
